flaticon/interaction/video-player-10.svg

<svg xmlns="http://www.w3.org/2000/svg" width="32" height="32" viewBox="0 0 24 24">
    <path d="M18.035156 14.5C17.921875 14.488281 17.808594 14.476562 17.695312 14.476562 17.492188 14.476562 17.292969 14.5 17.101562 14.539062 15.203125 14.785156 13.449219 16.011719 12.113281 18.054688L11.917969 18.347656 12.066406 18.574219C13.570312 20.871094 15.597656 22.136719 17.769531 22.136719 19.945312 22.136719 21.96875 20.871094 23.472656 18.574219L23.667969 18.28125 23.519531 18.054688C22.066406 15.835938 20.125 14.582031 18.035156 14.5zM19.726562 17.335938C19.726562 18.457031 18.816406 19.367188 17.695312 19.367188 16.574219 19.367188 15.664062 18.457031 15.664062 17.335938 15.664062 16.367188 16.347656 15.554688 17.257812 15.355469 17.441406 15.332031 17.628906 15.320312 17.816406 15.320312 17.828125 15.320312 17.835938 15.320312 17.847656 15.320312 18.894531 15.398438 19.726562 16.269531 19.726562 17.335938zM17.769531 21.308594C15.957031 21.308594 14.238281 20.261719 12.910156 18.347656 13.558594 17.402344 14.296875 16.664062 15.097656 16.152344 14.929688 16.515625 14.835938 16.914062 14.835938 17.335938 14.835938 18.914062 16.117188 20.195312 17.695312 20.195312 19.269531 20.195312 20.554688 18.914062 20.554688 17.335938 20.554688 16.832031 20.421875 16.363281 20.191406 15.949219 21.105469 16.449219 21.949219 17.234375 22.675781 18.28125 21.34375 20.238281 19.605469 21.308594 17.769531 21.308594zM15.308594 11.378906C15.308594 11.238281 15.238281 11.105469 15.117188 11.03125L10.566406 8.132812C10.4375 8.054688 10.277344 8.046875 10.144531 8.121094 10.011719 8.191406 9.929688 8.332031 9.929688 8.484375L9.929688 14.277344C9.929688 14.425781 10.011719 14.566406 10.144531 14.640625 10.207031 14.671875 10.277344 14.691406 10.34375 14.691406 10.421875 14.691406 10.5 14.667969 10.566406 14.625L15.117188 11.730469C15.238281 11.652344 15.308594 11.519531 15.308594 11.378906zM10.757812 13.523438L10.757812 9.234375 14.125 11.378906zM10.757812 13.523438"/>
    <path d="M 23.585938 1.863281 L 0.414062 1.863281 C 0.183594 1.863281 0 2.046875 0 2.277344 L 0 20.484375 C 0 20.710938 0.183594 20.898438 0.414062 20.898438 L 10.757812 20.898438 C 10.988281 20.898438 11.171875 20.710938 11.171875 20.484375 C 11.171875 20.253906 10.988281 20.070312 10.757812 20.070312 L 4.964844 20.070312 L 4.964844 2.691406 L 19.035156 2.691406 L 19.035156 11.378906 C 19.035156 11.609375 19.21875 11.792969 19.449219 11.792969 L 23.171875 11.792969 L 23.171875 15.101562 C 23.171875 15.332031 23.359375 15.515625 23.585938 15.515625 C 23.816406 15.515625 24 15.332031 24 15.101562 L 24 2.277344 C 24 2.046875 23.816406 1.863281 23.585938 1.863281 Z M 0.828125 11.792969 L 4.136719 11.792969 L 4.136719 15.515625 L 0.828125 15.515625 Z M 4.136719 10.964844 L 0.828125 10.964844 L 0.828125 7.242188 L 4.136719 7.242188 Z M 0.828125 20.070312 L 0.828125 16.34375 L 4.136719 16.34375 L 4.136719 20.070312 Z M 4.136719 6.414062 L 0.828125 6.414062 L 0.828125 2.691406 L 4.136719 2.691406 Z M 23.171875 2.691406 L 23.171875 6.414062 L 19.863281 6.414062 L 19.863281 2.691406 Z M 19.863281 10.964844 L 19.863281 7.242188 L 23.171875 7.242188 L 23.171875 10.964844 Z M 19.863281 10.964844"/>
</svg>

<svg xmlns="http://www.w3.org/2000/svg" width="32" height="32" viewBox="0 0 24 24">
    <path d="M18.035 14.5c-.113-.012-.226-.023-.34-.023-.203 0-.402.023-.593.062-1.899.246-3.653 1.473-4.989 3.516l-.195.293.148.226c1.504 2.297 3.532 3.563 5.704 3.563 2.175 0 4.199-1.266 5.703-3.563l.195-.293-.148-.226c-1.454-2.22-3.395-3.473-5.485-3.555zm1.692 2.836a2.032 2.032 0 0 1-4.063 0c0-.969.684-1.781 1.594-1.98.183-.024.37-.036.558-.036h.032a2.028 2.028 0 0 1 1.879 2.016zm-1.957 3.973c-1.813 0-3.532-1.047-4.86-2.961.649-.946 1.387-1.684 2.188-2.196a2.805 2.805 0 0 0-.262 1.184 2.86 2.86 0 0 0 2.86 2.86 2.863 2.863 0 0 0 2.859-2.86c0-.504-.133-.973-.364-1.387.914.5 1.758 1.285 2.485 2.332-1.332 1.957-3.07 3.028-4.906 3.028zm0 0M15.309 11.379c0-.14-.07-.274-.192-.348l-4.55-2.898a.418.418 0 0 0-.422-.012.41.41 0 0 0-.215.363v5.793c0 .149.082.29.215.364a.412.412 0 0 0 .422-.016l4.55-2.895a.418.418 0 0 0 .192-.351zm-4.551 2.144V9.234l3.367 2.145zm0 0"/>
    <path d="M23.586 1.863H.414A.412.412 0 0 0 0 2.277v18.207c0 .227.184.414.414.414h10.344a.414.414 0 0 0 0-.828H4.965V2.691h14.07v8.688c0 .23.184.414.414.414h3.723v3.309a.414.414 0 0 0 .828 0V2.277a.412.412 0 0 0-.414-.414zM.828 11.793h3.309v3.723H.828zm3.309-.828H.828V7.242h3.309zM.828 20.07v-3.726h3.309v3.726zM4.137 6.414H.828V2.691h3.309zm19.035-3.723v3.723h-3.309V2.691zm-3.309 8.274V7.242h3.309v3.723zm0 0"/>
</svg>
